!!!OTL: 709. Walzlied.
!!!ARE: Europa, Mitteleuropa, Deutschland
!!!SCT: B0709
!!!TXL: @@DE
!!!YEM: Copyright 1995, estate of Helmut Schaffrath.
**kern	**text
*ICvox	*
*Ivox	*
*clefG2	*
*M3/8	*
*k[]	*
*C:	*
=1	=1
!LO:TX:a:t=(Langſam.)	!
{8.g	Hört
16cc	ihr
8cc	den
=2	=2
8cc	ſchwä-
16ddL	-bi-
16ccJ	.
16bL	-ſchen
16aJ	.
=3	=3
8.a	Wir-
16g	-bel-
8g}	-tanʒ?
=4||	=4||
{8.cc	Bi-
16cc	-rum,
8cc	tral-
=5	=5
8dd	-la-
8cc	-rum!
8dd	Her-
=6	=6
4ee	-bei!
8r}	.
=7	=7
{8.g	Hört
16cc	ihr
8cc	den
=8	=8
8cc	ſchwä-
16ddL	-bi-
16ccJ	.
16bL	-ſchen
16aJ	.
=9	=9
8.a	Wir-
16g	-bel-
8g}	-tanʒ?
=10||	=10||
{8.cc	Bi-
16cc	-rum,
8cc	tral-
=11	=11
8dd	-la-
8cc	-rum!
8dd	Her-
=12	=12
4ee	-bei!
8r}	.
=13	=13
{8ff	Mag
8dd	ein
8dd	pe-
=14	=14
16ccL	-dan-
16bJ	.
16aL	-ti-
16gJ	.
16aL	-ſcher
16bJ	.
=15	=15
8cc	Fir-
8ee	-le-
8gg}	-fanʒ
=16||	=16||
{8ff	ru-
8dd	-fen
8dd	ſein
=17	=17
16ccL	Ach
16bJ	.
16aL	und
16gJ	.
16aL	ſein
16bJ	.
=18	=18
4cc	Ei!
8r}	.
=19	=19
{8ff	Mag
8dd	ein
8dd	pe-
=20	=20
16ccL	-dan-
16bJ	.
16aL	-ti-
16gJ	.
16aL	-ſcher
16bJ	.
=21	=21
8cc	Fir-
8ee	-le-
8gg}	-fanʒ
=22||	=22||
{8ff	ru-
8dd	-fen
8dd	ſein
=23	=23
16ccL	Ach
16bJ	.
16aL	und
16gJ	.
16aL	ſein
16bJ	.
=24	=24
4cc	Ei!
8r}	.
==	==
!!!AGN: Scherz - Lied, Tanz
!!!GTL: Scherzlieder und Gemischtes
!!!ONB: ESAC (Essen Associative Code) Database: BOEHME
!!!AMT: simple triple
!!!AIN: vox
!!!EED: Helmut Schaffrath
!!!EEV: 1.0
!!Volksmel. bei Gottfr. Weber, Lehrb. der Tonſetʒkunſt, J. Bd. 1817.
!!@@COMMENT:"Ged. v. Haug in Poetiſche Blumenleſe aufs Jahr" 1791. Göttingen. Daſelbſt mit einer
!!Komp. Jn "Joh. Haug's Epigrammen" v. J. L. Willing und vermiſchten Gedichten, Berlin 1805
!!II. Bd. 387 ſetʒt er ʒu dieſem Lied die Anmerkung: "Walʒlied komp. v. Himmel", (Himmels Komp.
!!iſt eine andere, ſ. dieſelbe bei Fink, Hausſchatʒ Nr. 651). Vergl. Weimar. Jahrb. 6. 149."
!!@@END:
!!!Text: J. Ch. F, Haug
!!!URL-scan: https://archive.org/details/BoehmeVtLieder1895/page/n557/mode/2up
!!!ENC: Anna Maria Matuszewska
!!!EEV: 2024/17/07
*-	*-
